assets/Icons/razorpay.svg

<svg width="123" height="27" viewBox="0 0 123 27" fill="none" xmlns="http://www.w3.org/2000/svg">
<path d="M11.19 9.03L7.94 21.47H0L1.61 15.35L11.19 9.03Z" fill="#072654"/>
<path d="M28.0904 5.08C29.9504 5.09 31.2604 5.5 32.0004 6.33C32.7404 7.16 32.9204 8.34 32.5104 9.89C32.2404 10.95 31.6904 11.92 30.9204 12.69C30.1204 13.49 29.1404 14.07 28.0504 14.37C28.8804 14.56 29.3904 15.15 29.5504 16.16L29.5804 16.38L30.1804 21.47H26.4804L25.8604 15.99C25.8504 15.81 25.8004 15.63 25.7104 15.47C25.6204 15.31 25.4904 15.18 25.3404 15.08C25.0304 14.92 24.6904 14.84 24.3404 14.83H24.1304H21.8504L20.1104 21.46H16.6504L20.9504 5.08H28.0904V5.08ZM122.88 9.37L118.48 15.71L113.29 23.23L113.25 23.27L112.09 24.95L112.05 25.01L112 25.09L111 26.53H107.56L111.58 20.86L109.76 9.77H113.33L114.23 17L118.59 10.81L118.65 10.72L118.72 10.62L118.79 10.53L119.33 9.38H122.88V9.37ZM92.4004 10.25C93.0604 10.81 93.4904 11.58 93.6404 12.44C93.8204 13.51 93.7404 14.62 93.4304 15.66C93.1404 16.81 92.6504 17.89 91.9704 18.85C91.3504 19.73 90.5504 20.46 89.6204 20.98C88.7404 21.46 87.7704 21.71 86.7704 21.71C86.0604 21.74 85.3604 21.56 84.7504 21.2C84.2804 20.92 83.9204 20.49 83.7204 19.98L83.6604 19.78L81.8904 26.53H78.4604L81.9704 13.13L81.9904 13.07L82.0004 13.01L82.8604 9.76H86.2104L85.6404 11.64L85.6304 11.72C86.1204 11.02 86.7804 10.45 87.5404 10.08C88.3004 9.68 89.1404 9.48 89.9904 9.48C90.8404 9.43 91.7004 9.71 92.4004 10.25ZM88.2604 12.11C87.8604 12.1 87.4604 12.18 87.0804 12.33C86.7104 12.48 86.3704 12.71 86.0804 12.99C85.4004 13.69 84.9304 14.58 84.7204 15.53C84.4204 16.64 84.4404 17.48 84.7404 18.06C85.0404 18.64 85.6104 18.94 86.4604 18.94C87.2704 18.96 88.0504 18.65 88.6404 18.08C89.3004 17.39 89.7604 16.53 89.9704 15.59C90.2604 14.5 90.2404 13.63 89.9404 13.02C89.6404 12.41 89.0804 12.11 88.2604 12.11ZM103.66 9.99C104.12 10.28 104.48 10.71 104.68 11.22L104.75 11.41L105.19 9.75H108.55L105.47 21.45H102.1L102.55 19.72C102.04 20.33 101.4 20.81 100.68 21.14C99.9804 21.46 99.2304 21.63 98.4704 21.63C97.5904 21.67 96.7104 21.42 95.9904 20.89C95.3304 20.37 94.8904 19.61 94.7504 18.78C94.5704 17.72 94.6304 16.64 94.9404 15.61C95.2404 14.46 95.7404 13.37 96.4304 12.4C97.0604 11.51 97.8704 10.76 98.8104 10.22C99.6704 9.72 100.65 9.45 101.64 9.45C102.36 9.43 103.06 9.61 103.66 9.99ZM101.92 12.14C101.51 12.14 101.1 12.22 100.73 12.38C100.35 12.54 100.01 12.77 99.7204 13.06C99.0504 13.77 98.5704 14.65 98.3604 15.61C98.0804 16.69 98.0804 17.51 98.4004 18.1C98.7104 18.69 99.2904 18.97 100.15 18.97C100.55 18.98 100.95 18.9 101.33 18.75C101.71 18.6 102.04 18.37 102.33 18.09C102.92 17.46 103.35 16.71 103.59 15.87L103.67 15.56C103.97 14.45 103.96 13.6 103.64 13.03C103.33 12.44 102.76 12.14 101.92 12.14ZM81.1304 9.63L81.3504 9.72L80.4904 12.91C80.0004 12.65 79.4604 12.52 78.9204 12.52C78.1004 12.49 77.3004 12.76 76.6504 13.27C76.0904 13.75 75.6804 14.39 75.4704 15.09L75.4004 15.36L73.8004 21.47H70.3804L73.4804 9.77H76.8504L76.4104 11.49C76.8304 10.91 77.3704 10.44 77.9804 10.09C78.6604 9.7 79.4204 9.5 80.2004 9.5C80.5104 9.48 80.8304 9.52 81.1304 9.63ZM68.5004 10.19C69.2604 10.67 69.8104 11.43 70.0204 12.31C70.2704 13.37 70.2304 14.49 69.9104 15.53C69.6104 16.71 69.0804 17.81 68.3304 18.75C67.6204 19.66 66.7204 20.38 65.6904 20.87C64.6404 21.36 63.5004 21.61 62.3404 21.6C61.1204 21.6 60.1204 21.36 59.3404 20.87C58.5704 20.39 58.0204 19.63 57.8004 18.75C57.5604 17.69 57.6004 16.57 57.9104 15.53C58.2104 14.36 58.7404 13.26 59.4904 12.31C60.2004 11.41 61.1104 10.68 62.1504 10.19C63.2104 9.7 64.3704 9.44 65.5404 9.46C66.5704 9.41 67.6004 9.67 68.5004 10.19ZM64.8404 12.1C64.0304 12.09 63.2504 12.4 62.6604 12.96C62.0504 13.54 61.5904 14.39 61.3004 15.53C60.7004 17.82 61.2804 18.96 63.0404 18.96C63.8404 18.98 64.6104 18.67 65.1904 18.11C65.7904 17.54 66.2304 16.68 66.5304 15.53C66.8304 14.4 66.8404 13.55 66.5404 12.96C66.2504 12.37 65.6804 12.1 64.8404 12.1ZM57.8904 9.76L57.2904 12.08L49.7404 18.75H55.8004L55.0804 21.48H45.0504L45.6804 19.07L53.1104 12.5H47.4604L48.1804 9.77H57.8904V9.76ZM40.9604 9.99C41.4204 10.28 41.7804 10.71 41.9804 11.22L42.0504 11.41L42.4904 9.75H45.8604L42.7904 21.45H39.4204L39.8704 19.72C39.3604 20.32 38.7304 20.8 38.0204 21.13C37.3104 21.46 36.5404 21.63 35.7504 21.63C34.8704 21.67 34.0104 21.41 33.3004 20.89C32.6404 20.37 32.2004 19.61 32.0604 18.78C31.8804 17.72 31.9404 16.64 32.2504 15.61C32.5404 14.46 33.0504 13.37 33.7404 12.4C34.3704 11.51 35.1804 10.76 36.1104 10.22C36.9704 9.72 37.9504 9.46 38.9404 9.46C39.6604 9.44 40.3604 9.62 40.9604 9.99ZM39.2304 12.14C38.8204 12.14 38.4204 12.22 38.0404 12.38C37.6604 12.54 37.3204 12.77 37.0304 13.06C36.3504 13.77 35.8804 14.65 35.6704 15.61C35.3904 16.69 35.4004 17.51 35.7104 18.1C36.0204 18.69 36.6004 18.97 37.4604 18.97C37.8604 18.98 38.2604 18.9 38.6404 18.75C39.0104 18.6 39.3604 18.37 39.6404 18.09C40.2304 17.47 40.6704 16.71 40.9004 15.87L40.9804 15.56C41.2704 14.45 41.2404 13.62 40.9504 13.03C40.6404 12.44 40.0604 12.14 39.2304 12.14ZM26.8504 7.81H23.6404L22.5104 12.09H25.7204C26.7304 12.09 27.5304 11.92 28.0704 11.57C28.6404 11.2 29.0504 10.62 29.2004 9.94C29.4004 9.22 29.3104 8.67 28.9304 8.32C28.5504 7.99 27.8604 7.81 26.8504 7.81Z" fill="#072654"/>
<path d="M18.4004 0L12.7604 21.47H8.89035L12.7004 6.93L6.86035 10.78L7.90035 6.95L18.4004 0Z" fill="#3395FF"/>
</svg>

<?xml version="1.0" encoding="utf-8"?><svg version="1.1" id="Layer_1" xmlns="http://www.w3.org/2000/svg" xmlns:xlink="http://www.w3.org/1999/xlink" x="0px" y="0px" viewBox="0 0 122.88 26.53" style="enable-background:new 0 0 122.88 26.53" xml:space="preserve"><style type="text/css"><![CDATA[
	.st0{fill:#3395FF;}
	.st1{fill:#072654;}
]]></style><g><polygon class="st1" points="11.19,9.03 7.94,21.47 0,21.47 1.61,15.35 11.19,9.03"/><path class="st1" d="M28.09,5.08C29.95,5.09,31.26,5.5,32,6.33s0.92,2.01,0.51,3.56c-0.27,1.06-0.82,2.03-1.59,2.8 c-0.8,0.8-1.78,1.38-2.87,1.68c0.83,0.19,1.34,0.78,1.5,1.79l0.03,0.22l0.6,5.09h-3.7l-0.62-5.48c-0.01-0.18-0.06-0.36-0.15-0.52 c-0.09-0.16-0.22-0.29-0.37-0.39c-0.31-0.16-0.65-0.24-1-0.25h-0.21h-2.28l-1.74,6.63h-3.46l4.3-16.38H28.09L28.09,5.08z M122.88,9.37l-4.4,6.34l-5.19,7.52l-0.04,0.04l-1.16,1.68l-0.04,0.06L112,25.09l-1,1.44h-3.44l4.02-5.67l-1.82-11.09h3.57 l0.9,7.23l4.36-6.19l0.06-0.09l0.07-0.1l0.07-0.09l0.54-1.15H122.88L122.88,9.37z M92.4,10.25c0.66,0.56,1.09,1.33,1.24,2.19 c0.18,1.07,0.1,2.18-0.21,3.22c-0.29,1.15-0.78,2.23-1.46,3.19c-0.62,0.88-1.42,1.61-2.35,2.13c-0.88,0.48-1.85,0.73-2.85,0.73 c-0.71,0.03-1.41-0.15-2.02-0.51c-0.47-0.28-0.83-0.71-1.03-1.22l-0.06-0.2l-1.77,6.75h-3.43l3.51-13.4l0.02-0.06l0.01-0.06 l0.86-3.25h3.35l-0.57,1.88l-0.01,0.08c0.49-0.7,1.15-1.27,1.91-1.64c0.76-0.4,1.6-0.6,2.45-0.6C90.84,9.43,91.7,9.71,92.4,10.25 L92.4,10.25z M88.26,12.11c-0.4-0.01-0.8,0.07-1.18,0.22c-0.37,0.15-0.71,0.38-1,0.66c-0.68,0.7-1.15,1.59-1.36,2.54 c-0.3,1.11-0.28,1.95,0.02,2.53c0.3,0.58,0.87,0.88,1.72,0.88c0.81,0.02,1.59-0.29,2.18-0.86c0.66-0.69,1.12-1.55,1.33-2.49 c0.29-1.09,0.27-1.96-0.03-2.57S89.08,12.11,88.26,12.11L88.26,12.11z M103.66,9.99c0.46,0.29,0.82,0.72,1.02,1.23l0.07,0.19 l0.44-1.66h3.36l-3.08,11.7h-3.37l0.45-1.73c-0.51,0.61-1.15,1.09-1.87,1.42c-0.7,0.32-1.45,0.49-2.21,0.49 c-0.88,0.04-1.76-0.21-2.48-0.74c-0.66-0.52-1.1-1.28-1.24-2.11c-0.18-1.06-0.12-2.14,0.19-3.17c0.3-1.15,0.8-2.24,1.49-3.21 c0.63-0.89,1.44-1.64,2.38-2.18c0.86-0.5,1.84-0.77,2.83-0.77C102.36,9.43,103.06,9.61,103.66,9.99L103.66,9.99z M101.92,12.14 c-0.41,0-0.82,0.08-1.19,0.24c-0.38,0.16-0.72,0.39-1.01,0.68c-0.67,0.71-1.15,1.59-1.36,2.55c-0.28,1.08-0.28,1.9,0.04,2.49 c0.31,0.59,0.89,0.87,1.75,0.87c0.4,0.01,0.8-0.07,1.18-0.22s0.71-0.38,1-0.66c0.59-0.63,1.02-1.38,1.26-2.22l0.08-0.31 c0.3-1.11,0.29-1.96-0.03-2.53C103.33,12.44,102.76,12.14,101.92,12.14L101.92,12.14z M81.13,9.63l0.22,0.09l-0.86,3.19 c-0.49-0.26-1.03-0.39-1.57-0.39c-0.82-0.03-1.62,0.24-2.27,0.75c-0.56,0.48-0.97,1.12-1.18,1.82l-0.07,0.27l-1.6,6.11h-3.42 l3.1-11.7h3.37l-0.44,1.72c0.42-0.58,0.96-1.05,1.57-1.4c0.68-0.39,1.44-0.59,2.22-0.59C80.51,9.48,80.83,9.52,81.13,9.63 L81.13,9.63z M68.5,10.19c0.76,0.48,1.31,1.24,1.52,2.12c0.25,1.06,0.21,2.18-0.11,3.22c-0.3,1.18-0.83,2.28-1.58,3.22 c-0.71,0.91-1.61,1.63-2.64,2.12c-1.05,0.49-2.19,0.74-3.35,0.73c-1.22,0-2.22-0.24-3-0.73c-0.77-0.48-1.32-1.24-1.54-2.12 c-0.24-1.06-0.2-2.18,0.11-3.22c0.3-1.17,0.83-2.27,1.58-3.22c0.71-0.9,1.62-1.63,2.66-2.12c1.06-0.49,2.22-0.75,3.39-0.73 C66.57,9.41,67.6,9.67,68.5,10.19L68.5,10.19z M64.84,12.1c-0.81-0.01-1.59,0.3-2.18,0.86c-0.61,0.58-1.07,1.43-1.36,2.57 c-0.6,2.29-0.02,3.43,1.74,3.43c0.8,0.02,1.57-0.29,2.15-0.85c0.6-0.57,1.04-1.43,1.34-2.58c0.3-1.13,0.31-1.98,0.01-2.57 C66.25,12.37,65.68,12.1,64.84,12.1L64.84,12.1z M57.89,9.76l-0.6,2.32l-7.55,6.67h6.06l-0.72,2.73H45.05l0.63-2.41l7.43-6.57 h-5.65l0.72-2.73H57.89L57.89,9.76z M40.96,9.99c0.46,0.29,0.82,0.72,1.02,1.23l0.07,0.19l0.44-1.66h3.37l-3.07,11.7h-3.37 l0.45-1.73c-0.51,0.6-1.14,1.08-1.85,1.41s-1.48,0.5-2.27,0.5c-0.88,0.04-1.74-0.22-2.45-0.74c-0.66-0.52-1.1-1.28-1.24-2.11 c-0.18-1.06-0.12-2.14,0.19-3.17c0.29-1.15,0.8-2.24,1.49-3.21c0.63-0.89,1.44-1.64,2.37-2.18c0.86-0.5,1.84-0.76,2.83-0.76 C39.66,9.44,40.36,9.62,40.96,9.99L40.96,9.99z M39.23,12.14c-0.41,0-0.81,0.08-1.19,0.24c-0.38,0.16-0.72,0.39-1.01,0.68 c-0.68,0.71-1.15,1.59-1.36,2.55c-0.28,1.08-0.27,1.9,0.04,2.49c0.31,0.59,0.89,0.87,1.75,0.87c0.4,0.01,0.8-0.07,1.18-0.22 c0.37-0.15,0.72-0.38,1-0.66c0.59-0.62,1.03-1.38,1.26-2.22l0.08-0.31c0.29-1.11,0.26-1.94-0.03-2.53 C40.64,12.44,40.06,12.14,39.23,12.14L39.23,12.14z M26.85,7.81h-3.21l-1.13,4.28h3.21c1.01,0,1.81-0.17,2.35-0.52 c0.57-0.37,0.98-0.95,1.13-1.63c0.2-0.72,0.11-1.27-0.27-1.62C28.55,7.99,27.86,7.81,26.85,7.81L26.85,7.81z"/><polygon class="st0" points="18.4,0 12.76,21.47 8.89,21.47 12.7,6.93 6.86,10.78 7.9,6.95 18.4,0"/></g></svg>
